X:1
T:Title
%%score { ( 1 3 ) | ( 2 4 ) }
L:1/8
Q:1/4=100
M:4/4
K:C
V:1 treble nm="Grand Piano"
V:3 treble 
V:2 bass 
V:4 bass 
V:1
 [EG]3 [DF] [CE]>[DF] [EG]>[Ec] | c4 B2 z2 | F3 E D>E F>A | [FA]4 [EG]2 z2 | G3 F E2 [Ec]2 | %5
w: D.~B.~Towner * * * * *|||||
 B6 A2 | [EG]3 [EG] A2 B2 | [Ec]6 z2 | B3 A G2 B2 | [Ec]8 | G3 B c2 A2 | %11
w: ||||||
 e->[^Ge-] [Ge-]>[Ge-] [Ge]4 | [Ad]2 [DGB]2 [EGc]2 [CEA]2 | [DEB]3 [B,E^G] [^G,E]4 | %14
w: |||
 [A,EA]3 [DEB] [CEc]>[DB] [Gc]>d | e6 d2 | c>G c>d e2 d2 | [Ec]6 z2 |] %18
w: ||||
V:2
 [C,C]3 [C,A,] [C,G,]>[C,G,] [C,C]>[C,C] | [G,E]4 [G,D]2 z2 | %2
 [G,D]3 [G,C] [G,B,]>[G,C] [G,B,D]>[G,B,F] | [C,C]4 [C,C]2 z2 | [E,G,C]3 [D,G,C] [C,G,C]2 [C,G,]2 | %5
 [G,D]6 [G,B,F]2 | [C,C]3 [C,C][K:treble] [G,B,F]2 [G,F]2 | [C,G,]6 z2 | F3 F F2 F2 | %9
 [C,G,]>C, C,>C, C,4 | C3 D E2 C2 | B,8 | [F,A,]2 D,2 C,2 C,2 | E,3 E, E,2 D,2 | %14
 C,3 G, G,>G, [E,G,]>[K:treble][G,B,G] | [CG]6 [F,A,F]2 | %16
 [G,E]>[G,CE] [G,E]>[G,B,G] [G,CG]2 [G,B,F]2 | [C,C]6 z2 |] %18
V:3
 x8 | x8 | x8 | x8 | x8 | x8 | x8 | x8 | x8 | z z/ G,/ G,>G, G,4 | x8 | ^G2 z2 z4 | x8 | x8 | x8 | %15
 x8 | x8 | x8 |] %18
V:4
 x8 | x8 | x8 | x8 | x8 | x8 | x4[K:treble] x4 | x8 | x8 | x8 | x8 | E,>E, E,>E, E,4 | x8 | x8 | %14
 x15/2[K:treble] x/ | x8 | x8 | x8 |] %18

